X: 71
T: No_8_A_Hard_Road.krn
N: Derived from No_8_A_Hard_Road.krn
%%abc-version 2.0
%%abcx-abcm2ps-target-version 5.9.1 (29 Sep 2008)
%%abc-creator hum2abc beta
%%abcx-conversion-date 2019/03/15 08:27:55
%%humdrum-veritas 1536527758
%%humdrum-veritas-data 430047570
%%linebreak <none>
%%barnumbers 0
L: 1/8
M: 3/4
K: Eb clef=treble
[K:clef=treble][M:3/4]B2BcB2 | 
G3/G/ F3/E/ E3/E/ | 
F4z3/ E/ | 
[M:2/4]E3/G/ G3/F/ | 
G3/G/ F3/E/ | 
[M:3/4]E4z3/ F/ | 
[M:2/4]E3/F/ E3/F/ | 
[M:3/4](3ECC (3FFE E3/F/ | 
[M:2/4]E2E3/E/ | 
E2z3/ c/ | 
B2B3/c/ [I:setbarnb 12]| 
B2B3/B/ | 
B2z3/ e/ | 
[M:3/4]B2B3/e/B2 | 
G3/G/ F3/E/ E3/E/ | 
F4z3/ E/ | 
[M:2/4]E3/G/ G3/F/ | 
G2F2 | 
[M:3/4]E2z2z3/ F/ | 
[M:2/4]E3/F/ E3/F/ | 
[M:3/4](3ECC (3FEE E3/F/ | 
[M:2/4]E2E3/E/ [I:setbarnb 23]| 
E2z3/ c/ :|]  
[M:2/4]E/E3/ E3/E/ | 
E2z2 |]  



